data/gallery/DSC07978.xmp
<x:xmpmeta xmlns:x="adobe:ns:meta/" x:xmptk="Adobe XMP Core 7.0-c000 1.000000, 0000/00/00-00:00:00        ">
 <rdf:RDF xmlns:rdf="http://www.w3.org/1999/02/22-rdf-syntax-ns#">
  <rdf:Description rdf:about=""
    xmlns:xmp="http://ns.adobe.com/xap/1.0/"
    xmlns:aux="http://ns.adobe.com/exif/1.0/aux/"
    xmlns:photoshop="http://ns.adobe.com/photoshop/1.0/"
    xmlns:xmpMM="http://ns.adobe.com/xap/1.0/mm/"
    xmlns:stEvt="http://ns.adobe.com/xap/1.0/sType/ResourceEvent#"
    xmlns:stRef="http://ns.adobe.com/xap/1.0/sType/ResourceRef#"
    xmlns:dc="http://purl.org/dc/elements/1.1/"
    xmlns:xmpDM="http://ns.adobe.com/xmp/1.0/DynamicMedia/"
    xmlns:crs="http://ns.adobe.com/camera-raw-settings/1.0/"
    xmlns:dcterms="http://purl.org/dc/terms/"
    xmlns:tiff="http://ns.adobe.com/tiff/1.0/"
    xmlns:exif="http://ns.adobe.com/exif/1.0/"
   xmp:CreatorTool="Adobe Lightroom 6.5 (Macintosh)"
   xmp:ModifyDate="2023-08-26T21:50:42-07:00"
   xmp:CreateDate="2023-08-25T18:50:24.721-07:00"
   xmp:MetadataDate="2024-06-22T21:33:30-07:00"
   aux:LensInfo="240/10 700/10 28/10 28/10"
   aux:Lens="24-70mm F2.8 DG DN | Art 019"
   aux:LensDistortInfo="33978/32768 -158155678/1073741824 87017291/1073741824 23732741/1073741824"
   aux:DistortionCorrectionAlreadyApplied="True"
   aux:LateralChromaticAberrationCorrectionAlreadyApplied="True"
   aux:VignetteCorrectionAlreadyApplied="True"
   photoshop:DateCreated="2023-08-25T18:50:24.721-07:00"
   photoshop:LegacyIPTCDigest="0C5280226F89F85DCFC34F6C4E953E26"
   photoshop:ColorMode="3"
   photoshop:ICCProfile="sRGB IEC61966-2.1"
   photoshop:SidecarForExtension="JPG"
   photoshop:EmbeddedXMPDigest="A78002BB8B5164A980350CC967ABF815"
   xmpMM:DocumentID="xmp.did:4c774ec7-13ac-47db-b3c7-06b08ef71af4"
   xmpMM:OriginalDocumentID="7E519AD3B5A176CC0451B90A4EE54D37"
   xmpMM:InstanceID="xmp.iid:30cb301b-6671-4429-86bb-c104289fe313"
   dc:format="image/jpeg"
   xmpDM:good="True"
   crs:RawFileName="DSC07978.ARW"
   crs:Version="15.5"
   crs:ProcessVersion="15.4"
   crs:WhiteBalance="As Shot"
   crs:Temperature="5250"
   crs:Tint="+14"
   crs:Exposure2012="0.00"
   crs:Contrast2012="+6"
   crs:Highlights2012="-68"
   crs:Shadows2012="+54"
   crs:Whites2012="+14"
   crs:Blacks2012="-21"
   crs:Texture="0"
   crs:Clarity2012="0"
   crs:Dehaze="0"
   crs:Vibrance="+12"
   crs:Saturation="-1"
   crs:ParametricShadows="0"
   crs:ParametricDarks="0"
   crs:ParametricLights="0"
   crs:ParametricHighlights="0"
   crs:ParametricShadowSplit="25"
   crs:ParametricMidtoneSplit="50"
   crs:ParametricHighlightSplit="75"
   crs:Sharpness="40"
   crs:SharpenRadius="+1.0"
   crs:SharpenDetail="25"
   crs:SharpenEdgeMasking="0"
   crs:LuminanceSmoothing="0"
   crs:ColorNoiseReduction="25"
   crs:ColorNoiseReductionDetail="50"
   crs:ColorNoiseReductionSmoothness="50"
   crs:HueAdjustmentRed="0"
   crs:HueAdjustmentOrange="0"
   crs:HueAdjustmentYellow="0"
   crs:HueAdjustmentGreen="0"
   crs:HueAdjustmentAqua="0"
   crs:HueAdjustmentBlue="0"
   crs:HueAdjustmentPurple="0"
   crs:HueAdjustmentMagenta="0"
   crs:SaturationAdjustmentRed="0"
   crs:SaturationAdjustmentOrange="0"
   crs:SaturationAdjustmentYellow="0"
   crs:SaturationAdjustmentGreen="0"
   crs:SaturationAdjustmentAqua="0"
   crs:SaturationAdjustmentBlue="0"
   crs:SaturationAdjustmentPurple="0"
   crs:SaturationAdjustmentMagenta="0"
   crs:LuminanceAdjustmentRed="0"
   crs:LuminanceAdjustmentOrange="0"
   crs:LuminanceAdjustmentYellow="0"
   crs:LuminanceAdjustmentGreen="0"
   crs:LuminanceAdjustmentAqua="0"
   crs:LuminanceAdjustmentBlue="0"
   crs:LuminanceAdjustmentPurple="0"
   crs:LuminanceAdjustmentMagenta="0"
   crs:SplitToningShadowHue="0"
   crs:SplitToningShadowSaturation="0"
   crs:SplitToningHighlightHue="0"
   crs:SplitToningHighlightSaturation="0"
   crs:SplitToningBalance="0"
   crs:ColorGradeMidtoneHue="0"
   crs:ColorGradeMidtoneSat="0"
   crs:ColorGradeShadowLum="0"
   crs:ColorGradeMidtoneLum="0"
   crs:ColorGradeHighlightLum="0"
   crs:ColorGradeBlending="50"
   crs:ColorGradeGlobalHue="0"
   crs:ColorGradeGlobalSat="0"
   crs:ColorGradeGlobalLum="0"
   crs:AutoLateralCA="0"
   crs:LensProfileEnable="1"
   crs:LensManualDistortionAmount="0"
   crs:VignetteAmount="0"
   crs:DefringePurpleAmount="0"
   crs:DefringePurpleHueLo="30"
   crs:DefringePurpleHueHi="70"
   crs:DefringeGreenAmount="0"
   crs:DefringeGreenHueLo="40"
   crs:DefringeGreenHueHi="60"
   crs:PerspectiveUpright="0"
   crs:PerspectiveVertical="0"
   crs:PerspectiveHorizontal="0"
   crs:PerspectiveRotate="0.0"
   crs:PerspectiveAspect="0"
   crs:PerspectiveScale="100"
   crs:PerspectiveX="0.00"
   crs:PerspectiveY="0.00"
   crs:GrainAmount="0"
   crs:PostCropVignetteAmount="0"
   crs:ShadowTint="0"
   crs:RedHue="0"
   crs:RedSaturation="0"
   crs:GreenHue="0"
   crs:GreenSaturation="0"
   crs:BlueHue="0"
   crs:BlueSaturation="0"
   crs:OverrideLookVignette="False"
   crs:ToneCurveName2012="Linear"
   crs:CameraProfile="Adobe Standard"
   crs:CameraProfileDigest="A4DC20C59DE4E2DF67946B80BFDA0801"
   crs:LensProfileSetup="LensDefaults"
   crs:LensProfileName="Adobe (SIGMA 24-70mm F2.8 DG DN A019, SONY) v3"
   crs:LensProfileFilename="SONY (SIGMA 24-70mm F2.8 DG DN A019) v3 - RAW.lcp"
   crs:LensProfileDigest="31493C208E8BD64926C73D06E3CD01D8"
   crs:LensProfileIsEmbedded="False"
   crs:LensProfileDistortionScale="100"
   crs:LensProfileVignettingScale="100"
   crs:HasSettings="True"
   crs:CropTop="0"
   crs:CropLeft="0"
   crs:CropBottom="1"
   crs:CropRight="1"
   crs:CropAngle="0"
   crs:CropConstrainToWarp="0"
   crs:HasCrop="False"
   crs:AlreadyApplied="True"
   dcterms:provenance="self#jumbf=/c2pa/adobe:urn:uuid:178eb720-ac5a-45bc-8cc1-cd7c55492a5a/c2pa.claim"
   tiff:Make="SONY"
   tiff:Model="ILCE-7M4"
   tiff:Orientation="1"
   tiff:ImageWidth="7008"
   tiff:ImageLength="4672"
   tiff:PhotometricInterpretation="2"
   tiff:SamplesPerPixel="3"
   tiff:XResolution="240/1"
   tiff:YResolution="240/1"
   tiff:ResolutionUnit="2"
   exif:ExifVersion="0232"
   exif:ExposureTime="1/60"
   exif:ShutterSpeedValue="5906891/1000000"
   exif:FNumber="11/1"
   exif:ApertureValue="6918863/1000000"
   exif:ExposureProgram="1"
   exif:SensitivityType="2"
   exif:RecommendedExposureIndex="200"
   exif:BrightnessValue="17554/2560"
   exif:ExposureBiasValue="0/10"
   exif:MaxApertureValue="760/256"
   exif:MeteringMode="5"
   exif:LightSource="1"
   exif:FocalLength="240/10"
   exif:FileSource="3"
   exif:SceneType="1"
   exif:FocalLengthIn35mmFilm="24"
   exif:CustomRendered="0"
   exif:ExposureMode="1"
   exif:WhiteBalance="1"
   exif:SceneCaptureType="0"
   exif:Contrast="0"
   exif:Saturation="0"
   exif:Sharpness="0"
   exif:DigitalZoomRatio="16/16"
   exif:FocalPlaneXResolution="64449339/32768"
   exif:FocalPlaneYResolution="64449339/32768"
   exif:FocalPlaneResolutionUnit="3"
   exif:GPSVersionID="2.2.0.0"
   exif:GPSLatitude="36,4.2954N"
   exif:GPSLongitude="112,12.01764W"
   exif:GPSTimeStamp="2023-08-26T01:51:24Z"
   exif:GPSStatus="A"
   exif:GPSMeasureMode="2"
   exif:GPSMapDatum="WGS-84"
   exif:GPSDifferential="0"
   exif:DateTimeOriginal="2023-08-25T18:50:24.721-07:00"
   exif:PixelXDimension="7008"
   exif:PixelYDimension="4672"
   exif:ColorSpace="1"
   exif:GPSDestBearingRef="">
   <xmpMM:History>
    <rdf:Seq>
     <rdf:li
      stEvt:action="edited"
      stEvt:when="2023-08-26T02:32:16.601Z"/>
     <rdf:li
      stEvt:action="derived"
      stEvt:parameters="converted from image/x-sony-arw to image/jpeg, saved to new location"/>
     <rdf:li
      stEvt:action="saved"
      stEvt:instanceID="xmp.iid:4c774ec7-13ac-47db-b3c7-06b08ef71af4"
      stEvt:when="2023-08-26T21:50:42-07:00"
      stEvt:softwareAgent="Adobe Lightroom 6.5 (Macintosh)"
      stEvt:changed="/"/>
     <rdf:li
      stEvt:action="saved"
      stEvt:instanceID="xmp.iid:5ef6e6e1-a35a-4af4-a77e-fc6ff5e443ae"
      stEvt:when="2024-06-22T21:33:28-07:00"
      stEvt:softwareAgent="Adobe Photoshop Camera Raw 16.3"
      stEvt:changed="/metadata"/>
     <rdf:li
      stEvt:action="saved"
      stEvt:instanceID="xmp.iid:30cb301b-6671-4429-86bb-c104289fe313"
      stEvt:when="2024-06-22T21:33:30-07:00"
      stEvt:softwareAgent="Adobe Photoshop Camera Raw 16.3.1 (Macintosh)"
      stEvt:changed="/metadata"/>
    </rdf:Seq>
   </xmpMM:History>
   <xmpMM:DerivedFrom
    stRef:documentID="7E519AD3B5A176CC0451B90A4EE54D37"
    stRef:originalDocumentID="7E519AD3B5A176CC0451B90A4EE54D37"/>
   <crs:ToneCurvePV2012>
    <rdf:Seq>
     <rdf:li>0, 0</rdf:li>
     <rdf:li>255, 255</rdf:li>
    </rdf:Seq>
   </crs:ToneCurvePV2012>
   <crs:ToneCurvePV2012Red>
    <rdf:Seq>
     <rdf:li>0, 0</rdf:li>
     <rdf:li>255, 255</rdf:li>
    </rdf:Seq>
   </crs:ToneCurvePV2012Red>
   <crs:ToneCurvePV2012Green>
    <rdf:Seq>
     <rdf:li>0, 0</rdf:li>
     <rdf:li>255, 255</rdf:li>
    </rdf:Seq>
   </crs:ToneCurvePV2012Green>
   <crs:ToneCurvePV2012Blue>
    <rdf:Seq>
     <rdf:li>0, 0</rdf:li>
     <rdf:li>255, 255</rdf:li>
    </rdf:Seq>
   </crs:ToneCurvePV2012Blue>
   <crs:Look>
    <rdf:Description
     crs:Name="Adobe Color"
     crs:Amount="1"
     crs:UUID="B952C231111CD8E0ECCF14B86BAA7077"
     crs:SupportsAmount="false"
     crs:SupportsMonochrome="false"
     crs:SupportsOutputReferred="false"
     crs:Copyright="© 2018 Adobe Systems, Inc.">
    <crs:Group>
     <rdf:Alt>
      <rdf:li xml:lang="x-default">Profiles</rdf:li>
     </rdf:Alt>
    </crs:Group>
    <crs:Parameters>
     <rdf:Description
      crs:Version="15.5"
      crs:ProcessVersion="15.4"
      crs:ConvertToGrayscale="False"
      crs:CameraProfile="Adobe Standard"
      crs:LookTable="E1095149FDB39D7A057BAB208837E2E1">
     <crs:ToneCurvePV2012>
      <rdf:Seq>
       <rdf:li>0, 0</rdf:li>
       <rdf:li>22, 16</rdf:li>
       <rdf:li>40, 35</rdf:li>
       <rdf:li>127, 127</rdf:li>
       <rdf:li>224, 230</rdf:li>
       <rdf:li>240, 246</rdf:li>
       <rdf:li>255, 255</rdf:li>
      </rdf:Seq>
     </crs:ToneCurvePV2012>
     <crs:ToneCurvePV2012Red>
      <rdf:Seq>
       <rdf:li>0, 0</rdf:li>
       <rdf:li>255, 255</rdf:li>
      </rdf:Seq>
     </crs:ToneCurvePV2012Red>
     <crs:ToneCurvePV2012Green>
      <rdf:Seq>
       <rdf:li>0, 0</rdf:li>
       <rdf:li>255, 255</rdf:li>
      </rdf:Seq>
     </crs:ToneCurvePV2012Green>
     <crs:ToneCurvePV2012Blue>
      <rdf:Seq>
       <rdf:li>0, 0</rdf:li>
       <rdf:li>255, 255</rdf:li>
      </rdf:Seq>
     </crs:ToneCurvePV2012Blue>
     </rdf:Description>
    </crs:Parameters>
    </rdf:Description>
   </crs:Look>
   <tiff:BitsPerSample>
    <rdf:Seq>
     <rdf:li>8</rdf:li>
     <rdf:li>8</rdf:li>
     <rdf:li>8</rdf:li>
    </rdf:Seq>
   </tiff:BitsPerSample>
   <exif:ISOSpeedRatings>
    <rdf:Seq>
     <rdf:li>200</rdf:li>
    </rdf:Seq>
   </exif:ISOSpeedRatings>
   <exif:Flash
    exif:Fired="False"
    exif:Return="0"
    exif:Mode="2"
    exif:Function="False"
    exif:RedEyeMode="False"/>
  </rdf:Description>
 </rdf:RDF>
</x:xmpmeta>
